public/img/dish.svg

<svg width="62" height="28" viewBox="0 0 62 28" fill="none" xmlns="http://www.w3.org/2000/svg">
<g clip-path="url(#clip0)" filter="url(#filter0_i)">
<path d="M30.1855 13.9847C30.1855 17.0768 32.3508 18.608 34.7647 20.0368L36.9177 21.3163C38.0879 22.0072 38.614 22.7877 38.614 23.8454C38.614 25.2486 37.6231 26.1187 36.0328 26.1187C33.097 26.1187 32.2162 23.5682 31.7391 21.0732L31.6657 20.685H30.2304V27.7096H31.3477L31.4863 27.5475C31.7432 27.2447 31.7432 27.2447 31.996 27.2447C32.4282 27.2276 32.9828 27.3684 33.623 27.5262C34.4263 27.7224 35.3437 27.9441 36.2979 27.9441C38.7241 27.9441 42.1452 26.2424 42.1452 22.455C42.1452 19.815 40.6324 18.6293 38.8056 17.4607L34.7932 14.9742C33.8717 14.3984 33.4232 13.6349 33.4232 12.6326C33.4232 11.8138 34.0511 10.594 35.78 10.594C37.0645 10.594 38.6425 11.093 39.4458 14.987L39.5273 15.3708H40.9341L40.7588 9.08413H39.6334L39.4988 9.32724C39.4376 9.4424 39.3357 9.51064 39.2338 9.51064C39.1767 9.50637 38.8586 9.39975 38.671 9.33577C37.9534 9.09693 36.8769 8.7344 35.7841 8.7344C32.5342 8.72587 30.1855 10.9352 30.1855 13.9847Z" fill="#ED1944"/>
<path d="M4.11838 17.5176C4.11838 12.5488 6.34883 10.7831 8.25715 10.7831C10.3612 10.7831 11.6171 12.6298 11.6171 14.4126C11.6171 14.4126 11.6171 22.9939 11.6171 23.0365C11.3602 24.1497 10.1695 24.9558 8.77909 24.9558C6.62611 24.9558 4.11838 23.0067 4.11838 17.5176ZM14.977 0.0522164L14.8588 0.0991319C14.1901 0.346504 11.5641 1.24643 9.44374 1.79235L9.09306 1.88192V3.4216L9.60276 3.36615C10.7934 3.2382 11.242 3.40027 11.4091 3.55808C11.6049 3.74148 11.613 4.1168 11.613 4.70538C11.613 4.70538 11.613 9.41825 11.613 9.88314C10.5243 9.07705 9.47228 8.72305 8.14298 8.72305C6.03078 8.72305 3.93489 9.83196 2.38948 11.764C0.872608 13.6662 0 16.2167 0 18.7587C0 27.6812 6.47932 27.9413 7.21736 27.9413C9.02374 27.9413 10.4998 27.3527 11.613 26.2097C11.613 26.6192 11.613 27.5873 11.613 27.5873L12.1472 28.0053L18.1453 25.7875V24.299L17.6479 24.3416C16.4817 24.4355 16.0372 24.2606 15.866 24.0943C15.6906 23.9279 15.6621 23.6336 15.6621 23.1133V0.303854L15.0219 0.0351562L14.977 0.0522164Z" fill="#ED1944"/>
<path d="M59.7703 26.0075C58.1352 25.7047 57.9272 25.6663 57.9272 23.184V15.379C57.9272 10.9604 56.235 8.72129 52.8995 8.72129C51.0157 8.72129 49.2949 9.56151 47.9086 11.1353C47.9086 10.5083 47.9086 0.391666 47.9086 0.391666L47.2969 0.0078125L47.2398 0.0334028L47.0808 0.0973784C46.2979 0.434317 43.256 1.38116 41.8615 1.7906L41.523 1.8887V3.41985L42.0368 3.36014C42.3467 3.32175 42.5832 3.32175 42.9135 3.32175C43.256 3.32175 43.5047 3.39852 43.6434 3.5478C43.8758 3.79517 43.8677 4.28565 43.8636 4.6823C43.8636 4.68656 43.8636 4.85717 43.8636 4.85717V23.103C43.8636 25.5853 43.7168 25.7985 41.9022 25.999L41.4863 26.0459V27.5472H50.0901V26.0075L50.0167 25.999C48.353 25.8156 47.9086 25.7644 47.9086 23.1414C47.9086 23.1414 47.9086 14.0355 47.9086 13.9417C48.1165 13.673 49.6456 11.7836 51.5254 11.7836C53.1564 11.7836 53.8863 12.9394 53.8863 15.5326V23.1798C53.8863 25.5895 53.4908 25.8625 51.7904 25.999L51.7578 26.0032V27.5515H60.1577V26.08L59.7703 26.0075Z" fill="#ED1944"/>
<path fill-rule="evenodd" clip-rule="evenodd" d="M24.1152 27.1937C26.9532 27.1937 28.3885 25.4791 29.3957 23.4447C29.4609 23.3125 29.412 23.2186 29.2815 23.2783C28.5312 23.6409 26.5536 24.6005 24.1152 24.6005C21.6727 24.6005 19.6991 23.6409 18.9488 23.2783C18.8224 23.2144 18.7694 23.3082 18.8347 23.4447C19.8418 25.4748 21.2771 27.1937 24.1152 27.1937Z" fill="#ED1944"/>
<path fill-rule="evenodd" clip-rule="evenodd" d="M19.9682 18.5194C20.7511 20.106 21.8725 21.4921 24.1151 21.4921C26.3578 21.4921 27.4832 20.106 28.2621 18.5194C28.3151 18.4128 28.2743 18.3317 28.1642 18.3829C27.6627 18.6218 26.105 19.3511 24.1151 19.3511C22.1253 19.3511 20.5676 18.6218 20.0661 18.3829C19.956 18.3317 19.9111 18.4128 19.9682 18.5194Z" fill="#ED1944"/>
<path fill-rule="evenodd" clip-rule="evenodd" d="M21.0031 14.0047C21.578 15.1818 22.418 16.2609 24.1143 16.2609C25.8106 16.2609 26.6506 15.1818 27.2255 14.0047C27.2663 13.9237 27.2296 13.8554 27.1399 13.8938C26.8708 14.0218 25.6923 14.5378 24.1143 14.5378C22.5403 14.5378 21.3578 14.0218 21.0887 13.8938C20.999 13.8554 20.9664 13.9237 21.0031 14.0047Z" fill="#ED1944"/>
<path fill-rule="evenodd" clip-rule="evenodd" d="M24.1161 11.3521C25.2946 11.3521 25.8695 10.5588 26.2487 9.76551C26.2773 9.7058 26.2487 9.65036 26.1753 9.68021C26.1223 9.70154 25.3027 10.0171 24.1161 10.0171C22.9296 10.0171 22.1059 9.70154 22.057 9.68021C21.9836 9.65036 21.955 9.7058 21.9836 9.76551C22.3628 10.5588 22.9336 11.3521 24.1161 11.3521Z" fill="#ED1944"/>
<path d="M20.8809 3.38218C20.8809 1.51409 22.3284 0 24.1144 0C25.9004 0 27.3479 1.51409 27.3479 3.38218C27.3479 5.25027 25.9004 6.76436 24.1144 6.76436C22.3284 6.76436 20.8809 5.25027 20.8809 3.38218Z" fill="#ED1944"/>
<path d="M61.4162 26.8711L61.6445 27.2337H61.5099L61.2979 26.8754H61.1593V27.2337H61.041V26.4062H61.3428C61.5303 26.4062 61.6241 26.4788 61.6241 26.6408C61.6241 26.7901 61.5344 26.8541 61.4162 26.8711ZM61.302 26.7688C61.4039 26.7688 61.4936 26.7602 61.4936 26.6323C61.4936 26.5299 61.4039 26.5086 61.3183 26.5086H61.1552V26.7645H61.302V26.7688Z" fill="#ED1944"/>
<path d="M62.0002 26.8181C62.0002 27.2361 61.6781 27.5389 61.3029 27.5389C60.9237 27.5389 60.6016 27.2318 60.6016 26.8181C60.6016 26.4044 60.9196 26.1016 61.3029 26.1016C61.6821 26.0973 62.0002 26.4044 62.0002 26.8181ZM61.8656 26.8181C61.8656 26.4769 61.621 26.221 61.307 26.221C60.993 26.221 60.7484 26.4769 60.7484 26.8181C60.7484 27.1636 60.993 27.4195 61.307 27.4195C61.6169 27.4195 61.8656 27.1636 61.8656 26.8181Z" fill="#ED1944"/>
</g>
<defs>
<filter id="filter0_i" x="0" y="0" width="62" height="32" filterUnits="userSpaceOnUse" color-interpolation-filters="sRGB">
<feFlood flood-opacity="0" result="BackgroundImageFix"/>
<feBlend mode="normal" in="SourceGraphic" in2="BackgroundImageFix" result="shape"/>
<feColorMatrix in="SourceAlpha" type="matrix" values="0 0 0 0 0 0 0 0 0 0 0 0 0 0 0 0 0 0 127 0" result="hardAlpha"/>
<feOffset dy="4"/>
<feGaussianBlur stdDeviation="2"/>
<feComposite in2="hardAlpha" operator="arithmetic" k2="-1" k3="1"/>
<feColorMatrix type="matrix" values="0 0 0 0 0 0 0 0 0 0 0 0 0 0 0 0 0 0 0.25 0"/>
<feBlend mode="normal" in2="shape" result="effect1_innerShadow"/>
</filter>
<clipPath id="clip0">
<rect width="62" height="28" fill="white"/>
</clipPath>
</defs>
</svg>

<svg width="62" height="28" fill="none" xmlns="http://www.w3.org/2000/svg"><g clip-path="url(#clip0)" filter="url(#filter0_i)" fill="#ED1944"><path d="M30.186 13.985c0 3.092 2.165 4.623 4.579 6.052l2.153 1.28c1.17.69 1.696 1.47 1.696 2.528 0 1.404-.99 2.274-2.581 2.274-2.936 0-3.817-2.55-4.294-5.046l-.073-.388H30.23v7.025h1.118l.138-.163c.257-.302.257-.302.51-.302.432-.017.987.123 1.627.281.803.196 1.72.418 2.675.418 2.426 0 5.847-1.702 5.847-5.489 0-2.64-1.513-3.826-3.34-4.994l-4.012-2.487c-.921-.576-1.37-1.34-1.37-2.341 0-.82.628-2.039 2.357-2.039 1.285 0 2.862.499 3.666 4.393l.081.384h1.407l-.175-6.287h-1.126l-.134.243c-.061.115-.163.184-.265.184-.057-.005-.375-.111-.563-.175-.718-.24-1.794-.602-2.887-.602-3.25-.008-5.598 2.201-5.598 5.25zM4.117 17.518c0-4.97 2.23-6.735 4.14-6.735 2.103 0 3.36 1.847 3.36 3.63v8.623c-.258 1.114-1.449 1.92-2.839 1.92-2.153 0-4.66-1.95-4.66-7.438zM14.977.052L14.859.1c-.669.248-3.295 1.147-5.415 1.693l-.35.09v1.54l.509-.056c1.19-.128 1.639.034 1.806.192.196.183.204.559.204 1.147v5.178c-1.089-.806-2.14-1.16-3.47-1.16-2.112 0-4.208 1.109-5.754 3.041C.873 13.666 0 16.217 0 18.759c0 8.922 6.48 9.182 7.217 9.182 1.807 0 3.283-.588 4.396-1.731v1.377l.534.418 5.998-2.217v-1.489l-.497.043c-1.166.094-1.61-.081-1.782-.248-.175-.166-.204-.46-.204-.98V.303l-.64-.269-.045.017z"/><path d="M59.77 26.008c-1.635-.303-1.843-.342-1.843-2.824v-7.805c0-4.419-1.692-6.658-5.027-6.658-1.884 0-3.605.84-4.991 2.414V.392l-.612-.384-.057.025-.16.064c-.782.337-3.824 1.284-5.218 1.694l-.339.098v1.53l.514-.059c.31-.038.546-.038.877-.038.342 0 .59.077.73.226.232.247.224.738.22 1.134v18.421c0 2.482-.147 2.695-1.962 2.896l-.416.047v1.501h8.604v-1.54L50.017 26c-1.664-.183-2.108-.235-2.108-2.858v-9.2c.208-.268 1.737-2.157 3.616-2.157 1.631 0 2.361 1.155 2.361 3.749v7.647c0 2.41-.395 2.683-2.096 2.819l-.032.004v1.549h8.4V26.08l-.388-.072z"/><path fill-rule="evenodd" clip-rule="evenodd" d="M24.115 27.194c2.838 0 4.274-1.715 5.28-3.75.066-.131.017-.225-.113-.166-.75.363-2.728 1.323-5.167 1.323-2.442 0-4.416-.96-5.166-1.323-.127-.064-.18.03-.114.167 1.007 2.03 2.442 3.749 5.28 3.749zm-4.147-8.675c.783 1.587 1.904 2.973 4.147 2.973 2.243 0 3.368-1.386 4.147-2.973.053-.106.012-.187-.098-.136-.501.239-2.059.968-4.049.968-1.99 0-3.547-.73-4.049-.968-.11-.051-.155.03-.098.136zm1.035-4.514c.575 1.177 1.415 2.256 3.111 2.256 1.697 0 2.537-1.08 3.111-2.256.041-.081.005-.15-.085-.111-.27.128-1.448.644-3.026.644-1.574 0-2.756-.516-3.025-.644-.09-.039-.123.03-.086.11zm3.113-2.653c1.179 0 1.753-.793 2.133-1.586.028-.06 0-.116-.074-.086-.053.022-.872.337-2.059.337-1.186 0-2.01-.315-2.059-.337-.073-.03-.102.026-.073.086.379.793.95 1.586 2.132 1.586z"/><path d="M20.88 3.382C20.88 1.514 22.329 0 24.115 0s3.234 1.514 3.234 3.382-1.448 3.382-3.234 3.382-3.233-1.514-3.233-3.382zm40.536 23.49l.229.362h-.135l-.212-.359h-.139v.359h-.118v-.828h.302c.187 0 .281.073.281.235 0 .15-.09.213-.208.23zm-.114-.103c.102 0 .192-.009.192-.137 0-.102-.09-.123-.176-.123h-.163v.256h.147v.004z"/><path d="M62 26.818c0 .418-.322.72-.697.72a.707.707 0 0 1-.701-.72.7.7 0 0 1 .7-.716.697.697 0 0 1 .698.716zm-.134 0c0-.341-.245-.597-.559-.597-.314 0-.559.256-.559.597 0 .346.245.601.559.601.31 0 .559-.255.559-.6z"/></g><defs><filter id="filter0_i" x="0" y="0" width="62" height="32" filterUnits="userSpaceOnUse" color-interpolation-filters="sRGB"><feFlood flood-opacity="0" result="BackgroundImageFix"/><feBlend in="SourceGraphic" in2="BackgroundImageFix" result="shape"/><feColorMatrix in="SourceAlpha" values="0 0 0 0 0 0 0 0 0 0 0 0 0 0 0 0 0 0 127 0" result="hardAlpha"/><feOffset dy="4"/><feGaussianBlur stdDeviation="2"/><feComposite in2="hardAlpha" operator="arithmetic" k2="-1" k3="1"/><feColorMatrix values="0 0 0 0 0 0 0 0 0 0 0 0 0 0 0 0 0 0 0.25 0"/><feBlend in2="shape" result="effect1_innerShadow"/></filter><clipPath id="clip0"><path fill="#fff" d="M0 0H62V28H0z"/></clipPath></defs></svg>
